assets/img/usageIcon3.svg

<svg width="128" height="128" viewBox="0 0 128 128" fill="none" xmlns="http://www.w3.org/2000/svg">
<path d="M64 128C28.7099 128 0 99.2901 0 64C0 28.7099 28.7099 0 64 0C99.2901 0 128 28.7099 128 64C128 99.2901 99.2901 128 64 128ZM64 9.14286C33.7499 9.14286 9.14286 33.7499 9.14286 64C9.14286 94.2501 33.7499 118.857 64 118.857C94.2501 118.857 118.857 94.2501 118.857 64C118.857 33.7499 94.2501 9.14286 64 9.14286Z" fill="#65CB88"/>
<path d="M64 128C61.4734 128 59.4286 125.955 59.4286 123.429V96H54.8572V100.571C54.8572 102.331 53.8483 103.929 52.2679 104.692C50.683 105.451 48.7991 105.237 47.4286 104.143L24.5715 85.8574C23.4867 84.9865 22.8572 83.6741 22.8572 82.2857C22.8572 80.8974 23.4867 79.5849 24.5715 78.7141L47.4286 60.4283C48.8037 59.3303 50.6743 59.1205 52.2679 59.8793C53.8483 60.6427 54.8572 62.2409 54.8572 64V68.5714H59.4286V54.8571C59.4286 52.3305 61.4734 50.2857 64 50.2857H77.7143C80.1207 50.2857 82.0892 52.1431 82.2725 54.5001L93.2544 45.7143L82.2725 36.9285C82.0892 39.2859 80.1207 41.1429 77.7143 41.1429H64C61.4734 41.1429 59.4286 39.0981 59.4286 36.5714V4.57143C59.4286 2.0448 61.4734 0 64 0C66.5267 0 68.5715 2.0448 68.5715 4.57143V32H73.1429V27.4286C73.1429 25.6695 74.1518 24.0713 75.7321 23.3079C77.3125 22.5445 79.1964 22.7589 80.5715 23.8569L103.429 42.1426C104.513 43.0135 105.143 44.3259 105.143 45.7143C105.143 47.1026 104.513 48.4151 103.429 49.2859L80.5715 67.5717C79.2009 68.6743 77.3257 68.8841 75.7321 68.1207C74.1518 67.3573 73.1429 65.7591 73.1429 64V59.4286H68.5715V73.1429C68.5715 75.6695 66.5267 77.7143 64 77.7143H50.2857C47.8793 77.7143 45.9109 75.8569 45.7276 73.4999L34.7456 82.2857L45.7276 91.0715C45.9109 88.7145 47.8793 86.8571 50.2857 86.8571H64C66.5267 86.8571 68.5715 88.9019 68.5715 91.4286V123.429C68.5715 125.955 66.5267 128 64 128Z" fill="#65CB88"/>
</svg>

<svg width="128" height="128" fill="none" xmlns="http://www.w3.org/2000/svg"><path d="M64 128C28.71 128 0 99.29 0 64S28.71 0 64 0s64 28.71 64 64-28.71 64-64 64ZM64 9.143C33.75 9.143 9.143 33.75 9.143 64S33.75 118.857 64 118.857 118.857 94.25 118.857 64 94.25 9.143 64 9.143Z" fill="#65CB88"/><path d="M64 128a4.569 4.569 0 0 1-4.571-4.571V96h-4.572v4.571a4.576 4.576 0 0 1-2.59 4.121 4.588 4.588 0 0 1-4.838-.549L24.57 85.857a4.578 4.578 0 0 1 0-7.143L47.43 60.428a4.58 4.58 0 0 1 4.839-.549A4.577 4.577 0 0 1 54.858 64v4.571h4.57V54.857A4.569 4.569 0 0 1 64 50.286h13.714a4.572 4.572 0 0 1 4.558 4.214l10.982-8.786-10.982-8.785a4.572 4.572 0 0 1-4.558 4.214H64a4.569 4.569 0 0 1-4.571-4.572v-32A4.569 4.569 0 0 1 64 0a4.569 4.569 0 0 1 4.572 4.571V32h4.57v-4.571a4.573 4.573 0 0 1 7.429-3.572l22.858 18.286a4.58 4.58 0 0 1 0 7.143L80.571 67.572a4.56 4.56 0 0 1-4.839.549A4.577 4.577 0 0 1 73.142 64v-4.571h-4.57v13.714A4.569 4.569 0 0 1 64 77.714H50.286a4.572 4.572 0 0 1-4.558-4.214l-10.982 8.786 10.982 8.785a4.572 4.572 0 0 1 4.558-4.214H64a4.569 4.569 0 0 1 4.572 4.572v32A4.57 4.57 0 0 1 64 128Z" fill="#65CB88"/></svg>
